img/google-play.svg

<svg width="24" height="24" viewBox="0 0 24 24" fill="none" xmlns="http://www.w3.org/2000/svg">
<path d="M11.128 12.003L1.08999 22.011C1.20295 22.4118 1.40608 22.7814 1.68386 23.0916C1.96163 23.4018 2.30668 23.6444 2.69261 23.8007C3.07854 23.957 3.49512 24.023 3.91047 23.9936C4.32583 23.9642 4.72895 23.8402 5.08899 23.631L16.379 17.254L11.128 12.003Z" fill="#EA4335"/>
<path d="M21.338 9.67L16.439 6.864L11.128 12.003L16.379 17.254L21.323 14.389C21.7538 14.1636 22.1147 13.8245 22.3664 13.4086C22.6182 12.9926 22.7514 12.5157 22.7514 12.0295C22.7514 11.5433 22.6182 11.0664 22.3664 10.6504C22.1147 10.2345 21.7538 9.89542 21.323 9.67H21.338Z" fill="#FBBC04"/>
<path d="M1.08999 1.995C1.02999 2.22 0.998993 2.452 0.999993 2.685V21.32C0.999993 21.553 1.02999 21.785 1.08999 22.01L11.128 12.003L1.08999 1.995Z" fill="#4285F4"/>
<path d="M11.128 12.003L16.439 6.864L5.12599 0.383C4.70041 0.133545 4.2163 0.00138828 3.72299 -1.0025e-07C3.12733 -0.00125876 2.5476 0.192339 2.07222 0.551268C1.59683 0.910197 1.25189 1.41476 1.08999 1.988L11.128 12.003Z" fill="#34A853"/>
</svg>

<svg xmlns="http://www.w3.org/2000/svg" width="24" height="24" fill="none" viewBox="0 0 24 24">
  <path fill="#EA4335" d="M11.128 12.003 1.09 22.011a2.73 2.73 0 0 0 3.999 1.62l11.29-6.377-5.251-5.25Z"/>
  <path fill="#FBBC04" d="m21.338 9.67-4.899-2.806-5.311 5.14 5.251 5.25 4.944-2.865a2.663 2.663 0 0 0 0-4.719h.015Z"/>
  <path fill="#4285F4" d="M1.09 1.995c-.06.225-.091.457-.09.69V21.32c0 .233.03.465.09.69l10.038-10.007L1.09 1.995Z"/>
  <path fill="#34A853" d="m11.128 12.003 5.311-5.139L5.126.383A2.79 2.79 0 0 0 3.723 0 2.73 2.73 0 0 0 1.09 1.988l10.038 10.015Z"/>
</svg>
